X:1
T:Ogni donna per te
T:Ogni donna per te
T:Giovanni Vito Lombardo
T:Source : Primo libro delle villanelle a 3 voci---Venetia---Figlio d'A.Gardano---1574. Editor : André Vierendeels (01/04/16).
T:Notes : Original clefs : C1, C2, C3 Editorial accidentals above the staff "Alla napolitana" Music by composers from Bari, collected by G. de Antiquis  
T:©
T:©
T:©
C:Giovanni Vito Lombardo
Z:©
%%score [ 1 2 3 ]
L:1/8
Q:1/4=90
M:4/4
K:F
V:1 treble nm="Soprano 1" snm="S 1"
V:2 treble nm="Soprano 2" snm="S 2"
V:3 treble-8 nm="Tenor" snm="T"
V:1
 F4 F2 G2 | A2 B2 A2 d2- | dd d2 c2 B2 | A2 d2 d4 | z2 B2 B4 | z2 c2 c3 B | A2 G2 A4 |[M:2/4] G4 :: %8
w: 1)O- gni don-|na per te, o-|* gni don- na per|te, per te,|1)per te,|per te po-|st'ho'in o- bli-|o,|
w: 2)Vo- ria sa-|pe- re co- me,|_ vo- ria sa- pe-|re co- me,|2)co- me|co- me mi|tro- * vi-|o,|
w: 3)Tu so- la|fis- sa stai den-|* tro, tu sola fis-|sa sta- i,|3)den- tro,|den- tr'al _|_ cor mi-|o,|
w: 4)Con- ten- ta-|mi che poi que-|* sto, con- ten- ta-|mi che poi|4)que- sto,|que- sto _|_ de- si-|o,|
 z4 |[M:3/4] c4 A2- |[M:4/4] A2 F2 B4 | z2 B2 G2 G2 | A3 A A2 A2 | B2 B2 G4 | G2 B4 A2 | G2 F2 G4 | %16
w: |1)e per|_ no- vi,|per no- vi|ac- ci- den- ti|non ti veg-|1)gio, non ti|veg- * *|
w: |2)in gra-|* ti- a|in gra- tia|vo- stra'e s'al- tri|vi ten seg-|2)gio, al- tri|vi ten seg-|
w: |3)che se|_ nel tuo,|che se nel|tuo io sol non|hag- gio'l preg-|3)gio, non hag-|gio'l preg- *|
w: |4)che ben|_ di- ce'l,|che ben di-|ce'l pro- ver- bio|che tu fa-|4)i, che tu|fa- * *|
 F4 c4 | B4 A2 G2- | GABc d4 | d4 c4 | B4 A4 | G2 B4 A2 | d2 d2 c4 | c2 d4 c2 | c4 B2 A2- | %25
w: gio, ahi,|ria for- tu-|* * * * na,|1)ahi, for-|tu- na|che mi puo|far peg- gio,|che mi puo|1)far peg- *|
w: gio, ahi,|ria for- tu-|* * * * na,|2)ahi, for-|tu- na|che mi puo|far peg- gio,|che mi puo|2)far peg- *|
w: gio, ahi,|ria for- tu-|* * * * na|3)ahi, for-|tu- na|che mi puo|far peg- gio,|che mi puo|3)far peg- *|
w: i, ch'A-|mo- re vec-|* * * * chio|4)ch'A- mo-|re vec-|chio non si|scor- da mai,|non si scor-|4)da mai, scor-|
 A2 GF G4 |[M:2/4] F4 :| %27
w: * * * gi-|o.|
w: * * * gi-|o.|
w: * * * gi-|o.|
w: * * * da|mai.|
V:2
 D4 D2 E2 | F2 G2 F2 B2- | BB B2 A2 G2 | F4 z2 B2 | B2 G2 G4 | z2 G2 G2 F2 |"^#" F2 G4 F2 | %7
w: 1)O- gni don-|na per te, o-|* gni don- na per|te, per-|1)te, per te,|per te po-|st'ho'in o- bli-|
w: 2)Vo- ria sa-|pe- re co- me,|_ vo- ria sa- pe-|re co-|2)me, co- me,|co- me mi|tro- vi- *|
[M:2/4] G4 :: G2 E2- |[M:3/4] E2 C4 |[M:4/4] F4 F2 D2- | D2 G4 E2 | F3 F F2 F2 | D2 D2 E4 | %14
w: o,|e per|1) no-|vi'ac- ci- den-|* ti, e|per no- vi'ac- ci-|den- ti non|
w: o,|in gra-|2)- ti-|a, in gra-|* ti- a|vo- stra'e s'al- tri|vi ten seg-|
 E2 D2 E2 F2 | E2 F4 E2 | F2 A4 G2- | G2 F2 _E4 | D4 B4- | B2 A4 G2- | G2 FE F4 | G4 F3 F | %22
w: 1)ti veg- gio, non|ti veg- *|gio, ahi, ria|_ for- tu-|na, ahi,|1) for- tu-|* * * na|che mi puo|
w: 2)gio, al- tri vi|ten seg- *|gio, ahi, ria|_ for- tu-|na, ahi,|2) for- tu-|* * * na|che mi puo|
 B2 B2 A4 | A2 B4 A2- | A2 G4 F2 | E2 F4 E2 |[M:2/4] F4 :| %27
w: far peg- gio,|che mi puo|1) far peg-|gi- * *|o.|
w: far peg- gio,|che mi puo|2) far peg-|gi- * *|o.|
V:3
 B4 B2 c2 | d2 G2 d2 B2- | BB B2 f2 e2 |"^b" d4 z2 B2 |"^b""^b" e4 z2 e2 | c6 c2 |"^b" d2 e2 d4 | %7
w: 3)Tu so- la|fis- sa stai den-|* tro, tu so- *|la, fis-|3)sa stai|den- tr'al|cor mi- *|
w: 4)Con- ten- ta-|mi che poi que-|sto, con- ten- ta- *|mi, che|4)poi que-|sto de-|* * si-|
[M:2/4] G4 :: c4 |[M:3/4] A4 F2- |[M:4/4] F2 B2 z2 B2 | G4 c4 | F3 F F2 F2 | B2 B2 c4 | c2 G4 F2 | %15
w: o,|che|3)se nel|_ tuo, che|se nel|tuo io sol non|hag- gio'l preg-|3)gio, non hag-|
w: o,|che|4)ben di-|* ce'l, che|ben di-|ce'l pro- ver- bio|che tu fa-|4)i, che tu|
 c2 d2 c4 | F2 f4 _e2- | e2 d2 c4 | G4 z2 g2- | g2 f4 e2 | d8 | G4 d3 d | B2 B2 f4 | f2 B4 F2 | %24
w: gio'l preg- *|gio, ahi, ria|_ for- tu-|na, ahi,|3) ria for-|tu-|na, che mi|puo far peg-|gio, che mi|
w: fa- * *|i, ch'A- mo-|* re vec-|chio, ch'A-|4)- mo- re|vec-|chio, non si|scor- da ma-|i, non si|
 c4 d4 | c8 |[M:2/4] F4 :| %27
w: 3)far peg-|gi-|o.|
w: 4)scor- da|ma-|i.|

